symbols/web/water_drop/materialsymbolsrounded/water_drop_wght300fill1_40px.svg

<svg xmlns="http://www.w3.org/2000/svg" height="40" width="40"><path d="M20 35.833q-4.958 0-8.729-3.458Q7.5 28.917 7.5 23q0-3.75 2.854-8.146 2.854-4.396 8.688-9.562.208-.167.458-.271.25-.104.5-.104t.5.104q.25.104.458.271 5.834 5.166 8.688 9.562Q32.5 19.25 32.5 23q0 5.917-3.771 9.375T20 35.833Zm.167-4.583q.5-.042.791-.25.292-.208.292-.583 0-.417-.292-.646-.291-.229-.833-.188-1.75.042-3.708-1.104-1.959-1.146-2.459-3.937-.083-.375-.333-.584-.25-.208-.542-.208-.416 0-.645.292-.23.291-.146.708.625 3.5 3.083 5.042 2.458 1.541 4.792 1.458Z"/></svg>

<svg xmlns="http://www.w3.org/2000/svg" height="40" width="40"><path d="M20 35.833Q15.042 35.833 11.271 32.375Q7.5 28.917 7.5 23Q7.5 19.25 10.354 14.854Q13.208 10.458 19.042 5.292Q19.25 5.125 19.5 5.021Q19.75 4.917 20 4.917Q20.25 4.917 20.5 5.021Q20.75 5.125 20.958 5.292Q26.792 10.458 29.646 14.854Q32.5 19.25 32.5 23Q32.5 28.917 28.729 32.375Q24.958 35.833 20 35.833ZM20.167 31.25Q20.667 31.208 20.958 31Q21.25 30.792 21.25 30.417Q21.25 30 20.958 29.771Q20.667 29.542 20.125 29.583Q18.375 29.625 16.417 28.479Q14.458 27.333 13.958 24.542Q13.875 24.167 13.625 23.958Q13.375 23.75 13.083 23.75Q12.667 23.75 12.438 24.042Q12.208 24.333 12.292 24.75Q12.917 28.25 15.375 29.792Q17.833 31.333 20.167 31.25Z"/></svg>
